X: 24951
T: Maid In The Meadow, The
R: jig
M: 6/8
K: Dmixolydian
|:cec BdB|AGA AGE|DEG AGA|BdB AGE|
c3 BdB|ABA AGE|DEG AGA|1 AGF GAB:|2 AGF G2 D||
|:GBd gfg|ede gdB|GBd gdB|AGA AGE|
GBd gfg|ede gdB|GAB AGA|AGF G3:|

